X:0694
T:The Gobby O.
C:Irish.
M:6/8
L:1/8
Q:3/8=120
I: :: :|
N:bar 11 is printed |faf gfe| (no accidental)
Z:Jack Campin * www.campin.me.uk * 2009
K:A Minor
B|c2A (AcA)|E2A  A2c| B2G (GBc)| dBG  GAB|c2A (AcA)|E2A  A2f|edc BAB|E2A A2:|
B|A2B  c2d |e2^f g3 |^faf  gfe |(dBG) G2B|A2B  c2d |e2^g aga|edc BAc|E2A A2:|

